X: 30609
T: One That Got Away, The
R: jig
M: 6/8
K: Gminor
|:G,B,D GDB,|A,CF AFC|B,DB AFC|B,DG B,A,G|
G,B,D GDB,|A,CF AFC|B,DG BdB|cAF [1 G2D:|2 GBd||
|:~g3 bag|afc Acf|GBd Acf|c=eg bag|
G2b afc|Bdg fcA|GBd cAF|DG^F [1 G3:|2 G2A||
|:BGD cAF|dBG ecA|dBc ABG|AFG DEC|
DB,G, GDB,|BGD dBG|cAF edc|1 dg^f g2A:|2 dBA G3||

